app/public/dtpr-icons/pixels.svg

<svg width="36" height="36" viewBox="0 0 36 36" fill="none" xmlns="http://www.w3.org/2000/svg">
<path fill-rule="evenodd" clip-rule="evenodd" d="M12.1658 20.562H13.8328V18.895H12.1658V17.229H13.8328V15.562H12.1658V13.895H13.8328V12.228H23.8338V22.229H22.1668V23.896H20.5008V22.229H18.8328V23.896H17.1668V22.229H15.4998V23.896H13.8328V22.229H12.1658V20.562ZM10.4988 11.395V24.729C10.4988 25.19 10.8728 25.563 11.3328 25.563H24.6678C25.1278 25.563 25.5008 25.19 25.5008 24.729V11.395C25.5008 10.934 25.1278 10.561 24.6678 10.561H11.3328C10.8728 10.561 10.4988 10.934 10.4988 11.395Z" fill="black"/>
<path fill-rule="evenodd" clip-rule="evenodd" d="M13.833 15.5618H15.5V13.8948H13.833V15.5618Z" fill="black"/>
<path fill-rule="evenodd" clip-rule="evenodd" d="M15.5 17.2288H17.167V15.5618H15.5V17.2288Z" fill="black"/>
<path fill-rule="evenodd" clip-rule="evenodd" d="M17.166 18.8958H18.833V17.2288H17.166V18.8958Z" fill="black"/>
<path fill-rule="evenodd" clip-rule="evenodd" d="M18.834 20.5628H20.501V18.8958H18.834V20.5628Z" fill="black"/>
<path fill-rule="evenodd" clip-rule="evenodd" d="M20.501 22.2288H22.167V20.5618H20.501V22.2288Z" fill="black"/>
<path fill-rule="evenodd" clip-rule="evenodd" d="M17.167 22.2288H18.834V20.5618H17.167V22.2288Z" fill="black"/>
<path fill-rule="evenodd" clip-rule="evenodd" d="M15.5 20.5628H17.167V18.8958H15.5V20.5628Z" fill="black"/>
<path fill-rule="evenodd" clip-rule="evenodd" d="M13.833 18.8958H15.5V17.2288H13.833V18.8958Z" fill="black"/>
<path fill-rule="evenodd" clip-rule="evenodd" d="M13.833 22.2288H15.5V20.5618H13.833V22.2288Z" fill="black"/>
<rect x="2" y="2" width="32" height="32" rx="16" stroke="black" stroke-width="2"/>
</svg>

<svg xmlns="http://www.w3.org/2000/svg" width="36" height="36" fill="none"><path fill="#000" fill-rule="evenodd" d="M12.166 20.562h1.667v-1.667h-1.667v-1.666h1.667v-1.667h-1.667v-1.667h1.667v-1.667h10v10.001h-1.666v1.667H20.5v-1.667h-1.668v1.667h-1.666v-1.667H15.5v1.667h-1.667v-1.667h-1.667zm-1.667-9.167v13.334c0 .461.374.834.834.834h13.335c.46 0 .833-.373.833-.834V11.395a.833.833 0 0 0-.833-.834H11.333a.834.834 0 0 0-.834.834" clip-rule="evenodd"/><path fill="#000" fill-rule="evenodd" d="M13.833 15.562H15.5v-1.667h-1.667zM15.5 17.229h1.667v-1.667H15.5zM17.166 18.896h1.667v-1.667h-1.667zM18.834 20.563h1.667v-1.667h-1.667zM20.501 22.229h1.666v-1.667h-1.666z" clip-rule="evenodd"/><path fill="#000" fill-rule="evenodd" d="M17.167 22.229h1.667v-1.667h-1.667zM15.5 20.563h1.667v-1.667H15.5zM13.833 18.896H15.5v-1.667h-1.667zM13.833 22.229H15.5v-1.667h-1.667z" clip-rule="evenodd"/><rect width="32" height="32" x="2" y="2" stroke="#000" stroke-width="2" rx="16"/></svg>
